src/assets/img/facebook-logo.svg

<svg xmlns="http://www.w3.org/2000/svg" fill="white" width="24" height="24" viewBox="0 0 24 24"><path
        d="M19 0h-14c-2.761 0-5 2.239-5 5v14c0 2.761 2.239 5 5 5h14c2.762 0 5-2.239 5-5v-14c0-2.761-2.238-5-5-5zm-3 7h-1.924c-.615 0-1.076.252-1.076.889v1.111h3l-.238 3h-2.762v8h-3v-8h-2v-3h2v-1.923c0-2.022 1.064-3.077 3.461-3.077h2.539v3z"/></svg>

<svg xmlns="http://www.w3.org/2000/svg" fill="#fff" width="24" height="24"><path d="M19 0H5a5 5 0 00-5 5v14a5 5 0 005 5h14a5 5 0 005-5V5a5 5 0 00-5-5zm-3 7h-1.924C13.461 7 13 7.252 13 7.889V9h3l-.238 3H13v8h-3v-8H8V9h2V7.077C10 5.055 11.064 4 13.461 4H16v3z"/></svg>
